X:819
T:Visa om ett mord
T:(Sv. L. Sm. 192)
R:Visa
O:Torsås, Småland
S:efter Vilhelm Andersson
B:Svenska Låtar Småland nr 192
N:Texten till visan behandlar ett mord som begåtts omkring 1890. Melodien härstammade, enligt uppgift, från 'Lambsens visor'.
Z:Jonas Brunskog
M:C
L:1/8
K:Gm
d|d>^F GA B2 AG|Bc/B/ A^F G3 d|
d>c d=e f2 dd|B>A Bc d3 (A|B)(>B d)d c2 He>e|
d>B GG ^F3 F|G>(A B)d B>A AG|Bc/B/ A^F G3 z||
(:musicend:)

(:music:)
